!!!COM: Vecchi, Orazio
!!!CDT: 1550///-1605/02/19/
!!!OTL: Cantate
!!!OTL2: E vivere, e morire
!!!ONM: No. 24
!!!SMS: Musica tolta da i madrigali di Claudio Monteverdi, e d'altri autori, e fatta spirituale
!!!PPR: A. Coppini, ed.
!!!PPP: Milan
!!!PDT: 1607
!!!URL: http://www.jpj.dk/coppini.htm
!!!AIN: contrafacta
**kern	**kern	**kern	**kern	**kern	**kern	**kern
*staff7	*staff6	*staff5	*staff4	*staff3	*staff2	*staff1
*Ivox	*Ivox	*Ivox	*Ivox	*Ivox	*Ivox	*Ivox
!B.C.	!basso	!tenore	!quinto	!alto	!sesto	!canto
*clefF4	*clefF4	*clefGv2	*clefGv2	*clefG2	*clefG2	*clefG2
*k[b-]	*k[b-]	*k[b-]	*k[b-]	*k[b-]	*k[b-]	*k[b-]
*M4/4	*M4/4	*M4/4	*M4/4	*M4/4	*M4/4	*M4/4
*MM120	*MM120	*MM120	*MM120	*MM120	*MM120	*MM120
=1-	=1-	=1-	=1-	=1-	=1-	=1-
4G\	4r	2G/	1r	4r	4r	4r
4G\	4G\	.	.	4Bn/	4g/	4dd\
[2C/	[2C/	[2G/	.	[2c/	[2g/	[2ee-\
=2	=2	=2	=2	=2	=2	=2
4C/]	4C/]	4G/]	1r	4c/]	4g/]	4ee-\]
4BBn/	4BBn/	4G/	.	4d/	4g/	4dd\
4C/	4C/	4G/	.	4e-/	4g/	4cc\
4GG/	4GG/	4G/	.	4d/	4g/	4b-\
=3	=3	=3	=3	=3	=3	=3
4D\	4D\	4A/	2r	4d/	4f/	4a/
4D\	4D\	4A/	.	4d/	4f/	4a/
4AA/	4AA/	4A/	4r	4c/	4e/	4cc\
[4BB-/	[4BB-/	[4F/	4d\	[4B-/	[4d/	[4dd\
=4	=4	=4	=4	=4	=4	=4
4BB-/]	4BB-/]	4F/]	4B-\	4B-/]	4d/]	4dd\]
4FF/	4FF/	4F/	4c\	4A/	4f/	4cc\
4FF/	4FF/	4F/	4c\	4A/	4f/	4cc\
4C/	4C/	4G/	4c\	4c/	4e/	4g/
=5	=5	=5	=5	=5	=5	=5
4GG/	4GG/	4G/	4B-\	4d/	4g/	4b-\
4GG/	4GG/	4G/	4B-\	4d/	4g/	4b-\
4D\	4D\	4D/	4d\	4A/	4f#/	4a/
[4GG/	[4GG/	[4D/	[4d\	[4G/	[4g/	[4b-\
=6	=6	=6	=6	=6	=6	=6
4GG/]	4GG/]	4D/]	4d\]	4G/]	4g/]	4b-\]
4D\	4D\	4D/	4d\	4A/	4f/	4a/
2AA/	2AA/	2E/	2c#\	2A/	2e/	2a/
=7	=7	=7	=7	=7	=7	=7
1D	1D	1D	1d	1A	1f#	1a
=8	=8	=8	=8	=8	=8	=8
4r	4r	1r	2G/	4r	4r	4r
4G\	4G\	.	.	4Bn/	4g/	4dd\
[2C/	[2C/	.	[2G/	[2c/	[2g/	[2ee-\
=9	=9	=9	=9	=9	=9	=9
4C/]	4C/]	1r	4G/]	4c/]	4g/]	4ee-\]
4BBn/	4BBn/	.	4G/	4d/	4g/	4dd\
4C/	4C/	.	4G/	4e-/	4g/	4cc\
4GG/	4GG/	.	4G/	4d/	4g/	4b-\
=10	=10	=10	=10	=10	=10	=10
4D\	4D\	2r	4A/	4d/	4f/	4a/
4D\	4D\	.	4A/	4d/	4f/	4a/
4AA/	4AA/	4r	4A/	4c/	4e/	4cc\
[4BB-/	[4BB-/	4d\	[4F/	[4B-/	[4d/	[4dd\
=11	=11	=11	=11	=11	=11	=11
4BB-/]	4BB-/]	4B-\	4F/]	4B-/]	4d/]	4dd\]
4FF/	4FF/	4c\	4F/	4A/	4f/	4cc\
4FF/	4FF/	4c\	4F/	4A/	4f/	4cc\
4C/	4C/	4c\	4G/	4c/	4e/	4g/
=12	=12	=12	=12	=12	=12	=12
4GG/	4GG/	4B-\	4G/	4d/	4g/	4b-\
4GG/	4GG/	4B-\	4G/	4d/	4g/	4b-\
4D\	4D\	4d\	4D/	4A/	4f#/	4a/
[4GG/	[4GG/	[4d\	[4D/	[4G/	[4g/	[4b-\
=13	=13	=13	=13	=13	=13	=13
4GG/]	4GG/]	4d\]	4D/]	4G/]	4g/]	4b-\]
4D\	4D\	4d\	4D/	4A/	4f/	4a/
2AA/	2AA/	2c#\	2E/	2A/	2e/	2a/
=14	=14	=14	=14	=14	=14	=14
2D\	2D\	2d\	2D/	2A/	2f#/	2a/
4r	4r	4r	2r	4r	2r	2r
4D\	4D\	4A/	.	4d/	.	.
=15	=15	=15	=15	=15	=15	=15
4G\	4G\	4B-\	4r	4d/	4r	4r
4F#\	4F#\	4A/	4D/	4d/	4a/	4dd\
4G\	4G\	4B-\	4G/	4d/	4g/	4dd\
4D\	8r	8r	4F#/	8r	4a/	4dd\
.	8D\	8A/	.	8d/	.	.
=16	=16	=16	=16	=16	=16	=16
4GG/	4GG/	4d\	4G/	4B-/	4g/	4dd\
4D\	4D\	4d\	8r	4A/	8r	8r
.	.	.	8d\	.	8f#/	8a/
*clefGv2	*	*	*	*	*	*
4G/	2r	2r	4G/	2r	4g/	4b-\
4d\	.	.	4d\	.	4f#/	4a/
=17	=17	=17	=17	=17	=17	=17
2r	1r	1r	2r	1r	2r	2r
4d\	.	.	4d\	.	4f/	4a/
8d\L	.	.	8d\	.	8f/	8a/
8d\J	.	.	8d\	.	8f/	8a/
=18	=18	=18	=18	=18	=18	=18
4c\	1r	1r	4c\	1r	4e/	4a/
8c\L	.	.	8c\	.	8e/	8a/
8c\J	.	.	8c\	.	8e/	8a/
4B-\	.	.	4B-\	.	4d/	4g/
8B-\L	.	.	8B-\	.	8d/	8g/
8B-\J	.	.	8B-\	.	8d/	8g/
=19	=19	=19	=19	=19	=19	=19
4A/	1r	1r	4A/	1r	4e/	4a/
8A/L	.	.	8A/	.	8e/	8a/
8F/J	.	.	8F/	.	8f/	8a/
4G/	.	.	4G/	.	4d/	4g/
8G/L	.	.	8G/	.	8d/	8g/
8G/J	.	.	8G/	.	8d/	8f/
=20	=20	=20	=20	=20	=20	=20
2A/	1r	1r	2A/	1r	2c#/	2e/
2D/	.	.	2D/	.	2d/	2d/
=21	=21	=21	=21	=21	=21	=21
4B-\	1r	4B-\	1r	1r	4b-\	4dd\
8B-\L	.	8B-\	.	.	8b-\	8dd\
8B-\J	.	8B-\	.	.	8b-\	8dd\
4f\	.	4f\	.	.	4a/	4cc\
8f\L	.	8f\	.	.	8a/	8cc\
8f\J	.	8f\	.	.	8a/	8dd\
=22	=22	=22	=22	=22	=22	=22
4e-\	1r	4e-\	1r	1r	4g/	4b-\
8e-\L	.	8e-\	.	.	8g/	8b-\
8c\J	.	8e-\	.	.	8g/	8cc\
4d\	.	4d\	.	.	4f#/	4a/
4d\	.	4d\	.	.	4f#/	4a/
*clefF4	*	*	*	*	*	*
=23	=23	=23	=23	=23	=23	=23
4BB-/	4BB-/	4B-\	4F/	4f/	4b-\	4dd\
8BB-/L	8BB-/	8B-\	8F/	8f/	8b-\	8dd\
8BB-/J	8BB-/	8B-\	8F/	8f/	8b-\	8dd\
4F\	4F\	4c\	4A/	4f/	4a/	4cc\
8F\L	8F\	8c\	8A/	8f/	8a/	8cc\
8F\J	8F\	8c\	8A/	8f/	8a/	8cc\
=24	=24	=24	=24	=24	=24	=24
4C/	4C/	4e-\	4G/	4g/	4cc\	4cc\
8C/L	8C/	8e-\	8G/	8g/	8cc\	8dd\
8GG/J	8GG/	8d\	8G/	8g/	8b-\	8dd\
4D\	4D\	4d\	4A/	4f/	4a/	4dd\
8D\L	8D\	8d\	8A/	8f/	8a/	8dd\
8G\J	8G\	8d\	8B-\	8g/	8g/	8b-\
=25	=25	=25	=25	=25	=25	=25
4C/	4C/	4c\	4G/	4e-/	4g/	4cc\
8C/L	8C/	8c\	8G/	8e-/	8g/	8cc\
8GG/J	8GG/	8B-\	8G/	8d/	8g/	8dd\
2D\	2D\	2A/	2D/	2d/	2f#/	2dd\
=26	=26	=26	=26	=26	=26	=26
2GG/	2GG/	2Bn\	2G/	2d/	2g/	2dd\
4r	4r	2r	4r	4r	2r	2r
4D\	4D\	.	4A/	4d/	.	.
=27	=27	=27	=27	=27	=27	=27
4G\	4G\	4r	4B-\	4d/	4r	4r
4F#\	4F#\	4D/	4A/	4d/	4a/	4dd\
4G\	4G\	4G/	4B-\	4d/	4g/	4dd\
4D\	8r	4F#/	8r	8r	4a/	4dd\
.	8D\	.	8A/	8d/	.	.
=28	=28	=28	=28	=28	=28	=28
4GG/	4GG/	4G/	4d\	4B-/	4g/	4dd\
4D\	4D\	8r	4d\	4A/	8r	8r
.	.	8d\	.	.	8f#/	8a/
*clefGv2	*	*	*	*	*	*
4G/	2r	4G/	2r	2r	4g/	4b-\
4d\	.	4d\	.	.	4f#/	4a/
=29	=29	=29	=29	=29	=29	=29
2r	1r	2r	1r	1r	2r	2r
4d\	.	4d\	.	.	4f/	4a/
8d\L	.	8d\	.	.	8f/	8a/
8d\J	.	8d\	.	.	8f/	8a/
=30	=30	=30	=30	=30	=30	=30
4c\	1r	4c\	1r	1r	4e/	4a/
8c\L	.	8c\	.	.	8e/	8a/
8c\J	.	8c\	.	.	8e/	8a/
4B-\	.	4B-\	.	.	4d/	4g/
8B-\L	.	8B-\	.	.	8d/	8g/
8B-\J	.	8B-\	.	.	8d/	8g/
=31	=31	=31	=31	=31	=31	=31
4A/	1r	4A/	1r	1r	4e/	4a/
8A/L	.	8A/	.	.	8e/	8a/
8F/J	.	8F/	.	.	8f/	8a/
4G/	.	4G/	.	.	4d/	4g/
8G/L	.	8G/	.	.	8d/	8g/
8G/J	.	8G/	.	.	8d/	8f/
=32	=32	=32	=32	=32	=32	=32
2A/	1r	2A/	1r	1r	2c#/	2e/
2D/	.	2D/	.	.	2d/	2d/
=33	=33	=33	=33	=33	=33	=33
4B-\	1r	1r	4B-\	1r	4b-\	4dd\
8B-\L	.	.	8B-\	.	8b-\	8dd\
8B-\J	.	.	8B-\	.	8b-\	8dd\
4f\	.	.	4f\	.	4a/	4cc\
8f\L	.	.	8f\	.	8a/	8cc\
8f\J	.	.	8f\	.	8a/	8dd\
=34	=34	=34	=34	=34	=34	=34
4e-\	1r	1r	4e-\	1r	4g/	4b-\
8e-\L	.	.	8e-\	.	8g/	8b-\
8e-\J	.	.	8e-\	.	8g/	8cc\
4d\	.	.	4d\	.	4f#/	4a/
4d\	.	.	4d\	.	4f#/	4a/
*clefF4	*	*	*	*	*	*
=35	=35	=35	=35	=35	=35	=35
4BB-/	4BB-/	4F/	4B-\	4f/	4b-\	4dd\
8BB-/L	8BB-/	8F/	8B-\	8f/	8b-\	8dd\
8BB-/J	8BB-/	8F/	8B-\	8f/	8b-\	8dd\
4F\	4F\	4A/	4c\	4f/	4a/	4cc\
8F\L	8F\	8A/	8c\	8f/	8a/	8cc\
8F\J	8F\	8A/	8c\	8f/	8a/	8cc\
=36	=36	=36	=36	=36	=36	=36
4C/	4C/	4G/	4e-\	4g/	4cc\	4cc\
8C/L	8C/	8G/	8e-\	8g/	8cc\	8cc\
8GG/J	8GG/	8G/	8d\	8g/	8b-\	8dd\
4D\	4D\	4A/	4d\	4f/	4a/	4dd\
8D\L	8D\	8A/	8d\	8f/	8a/	8dd\
8G\J	8G\	8B-\	8d\	8g/	8g/	8b-\
=37	=37	=37	=37	=37	=37	=37
4C/	4C/	4G/	4c\	4e-/	4g/	4cc\
8C/L	8C/	8G/	8c\	8e-/	8g/	8cc\
8GG/J	8GG/	8G/	8B-\	8d/	8g/	8dd\
2D\	2D\	2D/	2A/	2d/	2f#/	2dd\
=38	=38	=38	=38	=38	=38	=38
2GG/	2GG/	2G/	2Bn\	2d/	2g/	2dd\
2G\	2G\	4r	2B-\	4r	2b-\	2dd\
.	.	4G/	.	4g/	.	.
=39	=39	=39	=39	=39	=39	=39
1C	1C	2.G/	1c	1e-	2.g/	1cc
.	.	4G/	.	.	4g/	.
=40	=40	=40	=40	=40	=40	=40
2C/	2C/	2G/	2c\	2e-/	2g/	2cc\
2GG/	2GG/	2G/	2B-\	2d/	[2g/	2dd\
=41	=41	=41	=41	=41	=41	=41
1D	1D	1D	1A	1d	2g/]	1dd
.	.	.	.	.	2f#/	.
=42	=42	=42	=42	=42	=42	=42
1GG;	1GG;	1D;	1G;	1d;	1g;	1bn;
==	==	==	==	==	==	==
*-	*-	*-	*-	*-	*-	*-
!!!ENC: Craig Stuart Sapp
!!!END: 2004/12/10/
